X: 39259
T: Tailgating The Minister
R: reel
M: 4/4
K: Gmajor
|G3ABd|:fgBG EGBd|c2BG AGEF|FGGF GBde
[1 A2AG FAdf:|2 AGFA GABd|:c2A~B2|AGFG AGAB
cDGc BdBG|AGFG ABde|cDGc BdBG|DGAG FGAB
BAcd A~B2|1 AGFG ABde:|2 AGFG ABdf||

